assets/box-fill.svg

<svg xmlns="http://www.w3.org/2000/svg" fill="none" viewBox="0 0 28 28">
  <path fill="#2A2238" d="M6.5625 0c-.27168 0-.53963.0632539-.78262.184752C5.53688.306251 5.32551.482657 5.1625.7L.175 7.35C.0614056 7.50146 0 7.68568 0 7.875V26.25c0 .4641.184375.9092.512563 1.2374C.840752 27.8156 1.28587 28 1.75 28h24.5c.4641 0 .9092-.1844 1.2374-.5126.3282-.3282.5126-.7733.5126-1.2374V7.875c0-.18932-.0614-.37354-.175-.525L22.8375.7c-.163-.217343-.3744-.393749-.6174-.515248C21.9771.0632539 21.7092 0 21.4375 0H6.5625ZM26.25 8.16725V8.75H1.75v-.58275L2.625 7h10.5V1.75h1.75V7h10.5l.875 1.16725Z"/>
</svg>

<svg width="28" height="28" viewBox="0 0 28 28" fill="none" xmlns="http://www.w3.org/2000/svg">
<path d="M6.5625 0C6.29082 0 6.02287 0.0632539 5.77988 0.184752C5.53688 0.306251 5.32551 0.482657 5.1625 0.7L0.175 7.35C0.0614056 7.50146 0 7.68568 0 7.875L0 26.25C0 26.7141 0.184375 27.1592 0.512563 27.4874C0.840752 27.8156 1.28587 28 1.75 28H26.25C26.7141 28 27.1592 27.8156 27.4874 27.4874C27.8156 27.1592 28 26.7141 28 26.25V7.875C28 7.68568 27.9386 7.50146 27.825 7.35L22.8375 0.7C22.6745 0.482657 22.4631 0.306251 22.2201 0.184752C21.9771 0.0632539 21.7092 0 21.4375 0L6.5625 0ZM26.25 8.16725V8.75H1.75V8.16725L2.625 7H13.125V1.75H14.875V7H25.375L26.25 8.16725Z" fill="#2A2238"/>
</svg>
